!!!ONB: MCCC : ILB0186_03 : Extracted Monophonic Melody
!!!COM: Beethoven, Ludwig van
!!!OPR: Piano Sonata No.25
!!!OMV: 3
!!!SCT: Op.79
!!!ODT: 1809///
**kern
*thru
*staff1
*Ipiano
*>A
*clefG2
*k[f#]
*G:
*M2/4
*MM144
=1
8b
16cc
16b
8dd
16ee
16dd
=2
8g
16a
16g
4b
=3
8e
16f#
16e
8g
16a
16g
=4
8a
16b
16a
4b
=5
8b
16cc
16b
8dd
16ee
16dd
=6
8gg
16aa
16gg
4ff#
=7
8ee
16ff#
16ee
8cc#
16b
16cc#
=8
8dd
8r
4r
=9
*>A
*M2/4
8b
16cc
16b
8dd
16ee
16dd
=10
8g
16a
16g
4b
=11
8e
16f#
16e
8g
16a
16g
=12
8a
16b
16a
4b
=13
8b
16cc
16b
8dd
16ee
16dd
=14
8gg
16aa
16gg
4ff#
=15
8ee
16ff#
16ee
8cc#
16b
16cc#
=16
8dd
8r
4r
=17
*>B
8dd
16ee
16dd
8b
8cc#
=18
4dd
4d
=19
8e
8d
8e
8f#
=20
4g
4G
=21
4dd
8b
8cc#
=22
4dd
4b
=23
8dd
8cc
8a
8f#
=24
*>B1
8g
8r
4r
=25
*>B
8dd
16ee
16dd
8b
8cc#
=26
4dd
4d
=27
8e
8d
8e
8f#
=28
4g
4G
=29
4dd
8b
8cc#
=30
4dd
4b
=31
8dd
8cc
8a
8f#
=32
*>B2
8g
8r
4r
=33
*>C
4r
8b
16cc
16b
=34
8e
16f#
16e
4gg
=35
8ff#
8aa
8ff#
8dd#
=36
4ee
8b
8b
=37
16cc
16b
16a
16g
16f#
16g
16f#
16e
=38
16d#
16e
16f#
16d#
8B
8f#
=39
8g
8g
8g
8g
=40
8f#
8r
4r
=41
8b
16cc
16b
4bb
=42
2r
=43
8cc
16dd
16cc
4ccc
=44
2r
=45
8cc
16dd
16cc
8aa
16bb
16aa
=46
8cc
16dd
16cc
8aa
16bb
16aa
=47
8cc
16dd
16cc
8ff#
16gg
16ff#
=48
8cc
16dd
16cc
8dd
16ee
16dd
=49
8cc#
16dd
16cc#
8dd
16ee
16dd
=50
8cc
16dd
16cc
8dd
16ee
16dd
=51
8b
16cc
16b
8dd
16ee
16dd
=52
8g
16a
16g
4b
=53
8e
16f#
16e
8g
16a
16g
=54
8a
16b
16a
4b
=55
8b
16cc
16b
8dd
16ee
16dd
=56
8gg
16aa
16gg
4ff#
=57
8ee
16ff#
16ee
8cc#
16b
16cc#
=58
8b
8r
4r
=59
8dd
16ee
16dd
8b
8cc#
=60
4dd
4d
=61
8e
8d
8e
8f#
=62
4g
4G
=63
8dd
16ee
16dd
8b
8cc#
=64
4dd
4b
=65
8dd
8cc
8a
8f#
=66
4g
16r
16G
16A
16B
=67
16c
16G
16A
16B
16c
16d
16e
16f
=68
8g
8e
8cc
8g
=69
8ee
8cc
8gg
8ee
=70
4aa[
16aa]
16c
16d
16e
=71
*k[]
16f
16c
16d
16e
16f
16g
16a
16b-
=72
8cc
8a
8ff
8cc
=73
8aa
8ff
8fff
8bb
=74
4ccc[
16ccc]
16G
16A
16B
=75
16c
16G
16A
16B
16c
16d
16e
16f
=76
16g
16e
16c
16g
16cc
16g
16e
16cc
=77
16ee
16cc
16g
16ee
16gg
16ee
16cc
16gg
=78
4aa[
16aa]
16c
16d
16e
=79
16f
16c
16d
16e
16f
16g
16a
16b-
=80
16cc
16a
16f
16cc
16ff
16cc
16a
16ff
=81
16aa
16ff
16cc
16aa
16ff
16fff
16ddd
16bb
=82
8ccc
8r
4r
=83
8ee
16ff
16ee
8gg
16aa
16gg
=84
8ee
16ff
16ee
8gg
16aa
16gg
=85
8cc
16dd
16cc
8ee
16ff
16ee
=86
8cc
16dd
16cc
8ee
16ff
16ee
=87
*k[f#]
8cc
16dd
16cc
8dd
16ee
16dd
=88
8b
16cc
16b
8dd
16ee
16dd
=89
8g
16a
16g
4b
=90
8e
16f#
16e
8g
16a
16g
=91
8a
16b
16a
4b
=92
8b
16cc
16b
8dd
16ee
16dd
=93
8gg
16aa
16gg
4ff#
=94
8ee
16ff#
16ee
8cc#
16b
16cc#
=95
8dd
8r
4r
=96
12r
12b
12bb
12r
12dd
12ddd
=97
12r
12g
12gg
12r
12b
12bb
=98
12r
12e
12ee
12r
12g
12gg
=99
12r
12a
12aa
12r
12b
12bb
=100
12r
12b
12bb
12r
12dd
12ddd
=101
12r
12gg
12ggg
12r
12ff#
12fff#
=102
12r
12ee
12eee
12r
12cc#
12ccc#
=103
12r
12dd
12ddd
4r
=104
8dd
16ee
16dd
8b
8cc#
=105
4dd
4d
=106
8e
8d
8e
8f#
=107
4g
4G
=108
12r
12dd
12ddd
12r
12cc#
12ccc#
=109
12r
12dd
12ddd
12r
12b
12bb
=110
12r
12cc
12ccc
12r
12f#
12ff#
=111
4gg
4r
=112
8dd
16ee
16dd
8b
8cc#
=113
4dd
4d
=114
8ddd
16eee
16ddd
8bb
8ccc#
=115
8ddd
8r
4r
=116
8e
8d
8e
8f#
=117
4g
4G
=118
8eee
8ddd
8eee
8fff#
=119
8ggg
8r
4r
=120
8ee
8dd
8ee
8ff#
=121
8gg
8r
8dd
16ee
16dd
=122
8cc
16dd
16cc
8a
16b
16a
=123
8b
16cc
16b
8dd
16ee
16dd
=124
8cc
16dd
16cc
8a
16b
16a
=125
8b
8r
12r
12dd
12ddd
=126
12r
12cc
12ccc
12r
12a
12aa
=127
12r
12b
12bb
12r
12dd
12ddd
=128
12r
12cc
12ccc
12r
12a
12aa
=129
8b
16cc
16b
8dd
16ee
16dd
=130
8b
16cc
16b
8gg
16aa
16gg
=131
8dd
16ee
16dd
8bb
16ccc
16bb
=132
8gg
8r
8ddd
8r
=133
8bb
8r
4r
==
*-
